src/icons/aws-eks-cluster.svg

<?xml version="1.0" encoding="UTF-8"?>
<svg xmlns="http://www.w3.org/2000/svg" xmlns:xlink="http://www.w3.org/1999/xlink" width="28.529916" height="32" viewBox="0 0 28.529916 32" version="1.1">
<defs>
<linearGradient id="linear0" gradientUnits="userSpaceOnUse" x1="0.8547" y1="0.9743" x2="0.059" y2="-0.037" gradientTransform="matrix(6.824219,0,0,8.84375,11.371094,11.179688)">
<stop offset="0" style="stop-color:rgb(30.980393%,40.000001%,72.549021%);stop-opacity:1;"/>
<stop offset="0.01" style="stop-color:rgb(28.235295%,30.980393%,67.058825%);stop-opacity:1;"/>
</linearGradient>
<linearGradient id="linear1" gradientUnits="userSpaceOnUse" x1="1.1058" y1="0.9428" x2="0.1449" y2="-0.0345" gradientTransform="matrix(12.804688,0,0,21.679688,15.160156,0.617188)">
<stop offset="0" style="stop-color:rgb(30.980393%,40.000001%,72.549021%);stop-opacity:1;"/>
<stop offset="0.01" style="stop-color:rgb(28.235295%,30.980393%,67.058825%);stop-opacity:1;"/>
</linearGradient>
<linearGradient id="linear2" gradientUnits="userSpaceOnUse" x1="0.6302" y1="0.9454" x2="0.1169" y2="0.1757" gradientTransform="matrix(26.136719,0,0,30.773438,0.617187,0.617188)">
<stop offset="0" style="stop-color:rgb(29.803923%,40.784314%,73.333335%);stop-opacity:1;"/>
<stop offset="0.01" style="stop-color:rgb(31.764707%,50.196081%,78.823531%);stop-opacity:1;"/>
</linearGradient>
</defs>
<g id="surface1">
<path style=" stroke:none;fill-rule:nonzero;fill:url(#linear0);" d="M 11.371094 11.179688 L 12.636719 11.179688 L 12.636719 14.90625 L 16.273438 11.179688 L 17.941406 11.179688 L 13.949219 15.285156 L 18.195312 20.023438 L 16.578125 20.023438 L 12.636719 15.601562 L 12.636719 20.023438 L 11.371094 20.023438 L 11.371094 11.179688 "/>
<path style=" stroke:none;fill-rule:nonzero;fill:url(#linear1);" d="M 15.332031 7.671875 L 21.554688 11.261719 C 21.660156 11.324219 21.726562 11.4375 21.726562 11.558594 L 21.726562 18.746094 C 21.726562 18.867188 21.792969 18.980469 21.898438 19.042969 L 27.449219 22.25 C 27.679688 22.382812 27.964844 22.21875 27.964844 21.953125 L 27.964844 7.957031 C 27.964844 7.835938 27.902344 7.722656 27.792969 7.660156 L 15.675781 0.660156 C 15.445312 0.53125 15.160156 0.695312 15.160156 0.960938 L 15.160156 7.371094 C 15.160156 7.496094 15.222656 7.609375 15.332031 7.671875 "/>
<path style=" stroke:none;fill-rule:nonzero;fill:url(#linear2);" d="M 20.683594 20.546875 L 14.460938 24.140625 C 14.355469 24.203125 14.226562 24.203125 14.117188 24.140625 L 7.027344 20.046875 C 6.921875 19.984375 6.855469 19.871094 6.855469 19.75 L 6.855469 11.558594 C 6.855469 11.4375 6.921875 11.324219 7.027344 11.261719 L 13.25 7.667969 C 13.355469 7.609375 13.421875 7.496094 13.421875 7.371094 L 13.421875 0.960938 C 13.421875 0.695312 13.136719 0.53125 12.90625 0.660156 L 0.785156 7.660156 C 0.679688 7.722656 0.617188 7.835938 0.617188 7.957031 L 0.617188 23.351562 C 0.617188 23.472656 0.679688 23.585938 0.785156 23.648438 L 14.117188 31.347656 C 14.226562 31.40625 14.355469 31.40625 14.460938 31.347656 L 26.582031 24.347656 C 26.8125 24.21875 26.8125 23.886719 26.582031 23.753906 L 21.027344 20.546875 C 20.921875 20.484375 20.792969 20.484375 20.683594 20.546875 "/>
</g>
</svg>

<svg role="img" viewBox="0 0 28.53 32" xmlns="http://www.w3.org/2000/svg" xmlns:xlink="http://www.w3.org/1999/xlink"><defs><linearGradient gradientTransform="matrix(6.82422 0 0 8.84375 11.371 11.18)" gradientUnits="userSpaceOnUse" id="a" x1=".855" x2=".059" y1=".974" y2="-.037"><stop offset="0" style="stop-color:rgb(30.980393%,40.000001%,72.549021%);stop-opacity:1"/><stop offset=".01" style="stop-color:rgb(28.235295%,30.980393%,67.058825%);stop-opacity:1"/></linearGradient><linearGradient gradientTransform="matrix(12.80469 0 0 21.67969 15.16 .617)" gradientUnits="userSpaceOnUse" id="b" x1="1.106" x2=".145" y1=".943" y2="-.035"><stop offset="0" style="stop-color:rgb(30.980393%,40.000001%,72.549021%);stop-opacity:1"/><stop offset=".01" style="stop-color:rgb(28.235295%,30.980393%,67.058825%);stop-opacity:1"/></linearGradient><linearGradient gradientTransform="matrix(26.13672 0 0 30.77344 .617 .617)" gradientUnits="userSpaceOnUse" id="c" x1=".63" x2=".117" y1=".945" y2=".176"><stop offset="0" style="stop-color:rgb(29.803923%,40.784314%,73.333335%);stop-opacity:1"/><stop offset=".01" style="stop-color:rgb(31.764707%,50.196081%,78.823531%);stop-opacity:1"/></linearGradient></defs><path d="M11.371 11.18h1.266v3.726l3.636-3.726h1.668l-3.992 4.105 4.246 4.738h-1.617l-3.941-4.421v4.421H11.37z" style="stroke:none;fill-rule:nonzero;fill:url(#a)"/><path d="m15.332 7.672 6.223 3.59a.348.348 0 0 1 .172.297v7.187c0 .121.066.234.171.297l5.551 3.207a.343.343 0 0 0 .516-.297V7.957a.34.34 0 0 0-.172-.297l-12.117-7a.346.346 0 0 0-.516.3v6.411a.34.34 0 0 0 .172.3" style="stroke:none;fill-rule:nonzero;fill:url(#b)"/><path d="M20.684 20.547 14.46 24.14a.339.339 0 0 1-.344 0l-7.09-4.094a.348.348 0 0 1-.172-.297v-8.191c0-.121.067-.235.172-.297l6.223-3.594a.338.338 0 0 0 .172-.297V.961a.346.346 0 0 0-.516-.3l-12.12 7a.344.344 0 0 0-.169.296v15.395c0 .12.063.234.168.296l13.332 7.7c.11.058.238.058.344 0l12.121-7a.341.341 0 0 0 0-.594l-5.555-3.207a.339.339 0 0 0-.343 0" style="stroke:none;fill-rule:nonzero;fill:url(#c)"/></svg>
